src/pos-icons/ornament-variant.svg

<svg height="24" viewBox="0 0 24 24" width="24" xmlns="http://www.w3.org/2000/svg"><path d="m12 1a3 3 0 0 1 3 3v1a1 1 0 0 1 1 1v1.07c2.39 1.38 4 3.97 4 6.93a8 8 0 0 1 -8 8 8 8 0 0 1 -8-8c0-2.96 1.61-5.55 4-6.93v-1.07a1 1 0 0 1 1-1v-1a3 3 0 0 1 3-3m0 2a1 1 0 0 0 -1 1v1h2v-1a1 1 0 0 0 -1-1m0 5c-1.78 0-3.37.77-4.47 2h8.94c-1.1-1.23-2.69-2-4.47-2m0 12c1.78 0 3.37-.77 4.47-2h-8.94c1.1 1.23 2.69 2 4.47 2m0-8a2 2 0 0 0 -2 2 2 2 0 0 0 2 2 2 2 0 0 0 2-2 2 2 0 0 0 -2-2m6 2c0-.69-.12-1.35-.33-2-.95.19-1.67 1-1.67 2s.72 1.81 1.67 1.97c.21-.62.33-1.28.33-1.97m-12 0c0 .69.12 1.35.33 1.97.95-.16 1.67-.97 1.67-1.97s-.72-1.81-1.67-2c-.21.65-.33 1.31-.33 2z"/></svg>

<?xml version="1.0" encoding="UTF-8"?><!DOCTYPE svg PUBLIC "-//W3C//DTD SVG 1.1//EN" "http://www.w3.org/Graphics/SVG/1.1/DTD/svg11.dtd"><svg xmlns="http://www.w3.org/2000/svg" xmlns:xlink="http://www.w3.org/1999/xlink" version="1.1" id="mdi-ornament-variant" width="24" height="24" viewBox="0 0 24 24"><path d="M12,1A3,3 0 0,1 15,4V5A1,1 0 0,1 16,6V7.07C18.39,8.45 20,11.04 20,14A8,8 0 0,1 12,22A8,8 0 0,1 4,14C4,11.04 5.61,8.45 8,7.07V6A1,1 0 0,1 9,5V4A3,3 0 0,1 12,1M12,3A1,1 0 0,0 11,4V5H13V4A1,1 0 0,0 12,3M12,8C10.22,8 8.63,8.77 7.53,10H16.47C15.37,8.77 13.78,8 12,8M12,20C13.78,20 15.37,19.23 16.47,18H7.53C8.63,19.23 10.22,20 12,20M12,12A2,2 0 0,0 10,14A2,2 0 0,0 12,16A2,2 0 0,0 14,14A2,2 0 0,0 12,12M18,14C18,13.31 17.88,12.65 17.67,12C16.72,12.19 16,13 16,14C16,15 16.72,15.81 17.67,15.97C17.88,15.35 18,14.69 18,14M6,14C6,14.69 6.12,15.35 6.33,15.97C7.28,15.81 8,15 8,14C8,13 7.28,12.19 6.33,12C6.12,12.65 6,13.31 6,14Z" /></svg>
